X: 1
T: Lindesn\"as polska fr Orsa
C: trad efter Bleck\aa Anders Olsson
O: Sweden
B: Svenska L\aatar
R: polska
S: Fiddle Hell Online 2021-05-27
Z: 2021 John Chambers <jc:trillian.mit.edu>
P: A-bas.
M: 3/4
L: 1/16
K: Ddor
|:\
vA2eg {fe}f6 e2{fe}y| d2^cd (ef)ed (c{Bc}A3) |\
A3(e f4) fafd | ded^c {AG}[A4A4] "^>"[A4A4] :|
|: a2z(^g b2)a2 a4 | =gb3 a{ba}g3 g{ag}e3 |\
[1,3 f2e2 g2e2 f4 | d2e"^rit."d (3(!sf!M^c4 !sf!MB4 !sf!MA4 :|\
[2,4 f2z(e g2)zf e2zd | ([^c2e2]e2) d8 :|
